X:3
T:Mad John's
T:Harmony 1
C:Chris Armstrong
L:1/8
R:Jig
M:6/8
K:D
Q:"118 bpm"
[| {g}f2A {g}Adf | {a}gB{G}B {ag}a2g | {a}f2{AGAG}A adf | {g}ec{d}A age | 
{gfg}f2A {g}Adf | {a}gB{G}B {ag}a2g | {a}fda {ef}eca | d{g}d{G}d {g}dag | 
{e}f2A {g}Adf | {a}gB{G}B {ag}a2g | {a}d2A f2A | {g}c3 {g}cde |
{g}d3 fdA | B3 d2e | d3 c3 | f3 f3 | 
f3 afd | {gf}g3 d2e  | d2A f3 | e3 cde |
f3 afd | {gf}g3 d2e  |  d3 c3 | f3 cde |
f3 f3 | d3 d2 e | {a}d2A f2A | {g}c3 {g}cde |
d3 fdA | d3 e3 | {gAGAG}A2e {gef}e2d [M:9|8] | e{g}e{A}e (e3 e3)| age {g}deg {a}edB [M:2/4] |  {gAGAG}A4 |]
